!!!COM: Music21
!!!OTL: mazurka_An-Tulach
!!!OMV: mazurka_An-Tulach
**kern
*clefG2
*k[f#c#]
*D:
*M3/4
=1
12ddL
12ee
12ff#J
=
8.ggL
16ff#Jk
8.ggL
16bbJk
8.aaL
16ggJk
=
8.ff#L
16aJk
8.ddL
16cc#Jk
16ddKL
8.ff#J
=
8.eeL
16aJk
8.cc#L
16ccnJk
8.cc#XL
16eeJk
=
8.ff#L
16aJk
8.ddL
16cc#Jk
16ddKL
8.ff#J
!!linebreak:original
=
4gg
8.eeL
16bbJk
12bbL
12aa
12ggJ
=
16ff#KL
8.aJ
8.ddL
16cc#Jk
8.ddL
16ff#Jk
=
16eeKL
8.aJ
8.cc#L
16ccnJk
8.cc#XL
16eeJk
=
4dd
4d
4ryy
=||
*M3/4
12ddL
12ee
12ff#J
=
8.ggL
16ff#Jk
8.ggL
16bbJk
8.aaL
16ggJk
!!linebreak:original
=
8.ff#L
16aJk
8.ddL
16cc#Jk
16ddKL
8.ff#J
=
8.eeL
16aJk
8.cc#L
16ccnJk
8.cc#XL
16eeJk
=
8.ff#L
16aJk
8.ddL
16cc#Jk
16ddKL
8.ff#J
=
4gg
8.eeL
16bbJk
12bbL
12aa
12ggJ
=
16ff#KL
8.aJ
8.ddL
16cc#Jk
8.ddL
16ff#Jk
!!linebreak:original
=
16eeKL
8.aJ
8.cc#L
16ccnJk
8.cc#XL
16eeJk
=
4dd
4d
4ryy
=||
12ff#L
12ee
12ddJ
2ryy
=
8.eeL
16aJk
8.cc#L
16ccnJk
8.cc#XL
16aJk
=
8.ff#L
16aJk
8.ddL
16cc#Jk
8.ddL
16ff#Jk
=
8.eeL
16aaJk
8.cc#L
16eeJk
8.ggL
16aaJk
!!linebreak:original
=
8.bbL
16aaJk
8.gg#XL
16aaJk
8.ff#L
16ddJk
=
8.eeL
16aJk
4cc#
12ggL
12ff#
12eeJ
=
8.ff#L
16aJk
8.ddL
16aJk
8.aaL
16ff#Jk
=
8.ggL
16eeJk
8.cc#L
16aJk
8.ggL
16eeJk
=
4dd
4d
4ryy
=||
12ff#L
12ee
12ddJ
2ryy
!!linebreak:original
=
8.eeL
16aJk
8.cc#L
16ccnJk
8.cc#XL
16aJk
=
8.ff#L
16aJk
8.ddL
16cc#Jk
8.ddL
16ff#Jk
=
8.eeL
16aaJk
8.cc#L
16eeJk
8.ggL
16aaJk
=
8.bbL
16aaJk
8.gg#XL
16aaJk
8.ff#L
16ddJk
=
8.ggL
16eeJk
8.cc#L
16gg#XJk
12bbL
12aa
12ggnJ
!!linebreak:original
=
8.aaL
16ff#Jk
8.ddL
16cc#Jk
8.ddL
16aJk
=
16eeKL
8.aJ
8.cc#L
16ccnJk
12cc#XL
12b
12aJ
=
4dd
4d
4ryy
=||
*-
